swiss/communes/0135.svg

<?xml version="1.0" encoding="UTF-8" standalone="no"?>
<!-- Created with Inkscape (http://www.inkscape.org/) -->
<svg
   xmlns:svg="http://www.w3.org/2000/svg"
   xmlns="http://www.w3.org/2000/svg"
   version="1.0"
   width="237.70752"
   height="278.43732"
   id="svg2780">
  <defs
     id="defs2782" />
  <g
     transform="translate(-3.6365762,-800.49039)"
     id="layer1">
    <path
       d="M 4.6365762,801.49039 L 8.9221631,981.49604 C 11.983288,1110.0716 232.99738,1110.0716 236.05852,981.49604 L 240.3441,801.49039 L 4.6365762,801.49039 z"
       id="path3282"
       style="fill:#246fcb;fill-opacity:1;fill-rule:evenodd;stroke:#000000;stroke-width:2;stroke-linecap:butt;stroke-miterlimit:4;stroke-dashoffset:0;stroke-opacity:1" />
    <path
       d="M 206.11714,1016.9291 C 212.2509,1017.8326 213.18131,1016.3121 212.90176,1010.1445 C 211.79618,985.75288 228.76894,969.23458 212.15396,946.11705 C 194.69463,921.82473 151.82812,946.56789 151.82812,929.57405 C 151.82812,912.58021 192.75321,935.87794 212.15396,913.03105 C 229.7317,892.33099 209.7033,870.71811 212.90176,849.00362 C 213.80524,842.86986 212.28472,841.93942 206.11714,842.21897 C 181.72552,843.32453 165.20722,826.35185 142.08971,842.96681 C 117.7974,860.42612 142.54055,903.29262 125.54671,903.29262 C 108.55287,903.29262 131.8506,862.36752 109.00371,842.96681 C 88.30366,825.38911 66.690797,845.41737 44.976284,842.21897 C 38.842533,841.31551 37.912084,842.83604 38.191632,849.00362 C 39.297192,873.39524 22.32451,889.91354 38.939472,913.03105 C 56.398781,937.32336 99.265282,912.58021 99.265282,929.57405 C 99.265282,946.56789 58.340185,923.27016 38.939472,946.11705 C 21.361771,966.81711 41.390036,988.42998 38.191632,1010.1445 C 37.288173,1016.2782 38.8087,1017.2087 44.976284,1016.9291 C 69.367899,1015.8235 85.886185,1032.7963 109.00371,1016.1813 C 133.29603,998.72197 108.55287,955.85546 125.54671,955.85546 C 142.54055,955.85546 119.24282,996.78055 142.08971,1016.1813 C 162.78977,1033.759 184.40265,1013.7306 206.11714,1016.9291 z"
       id="path2460"
       style="fill:#ffffff;fill-opacity:1;fill-rule:evenodd;stroke:#000000;stroke-width:1px;stroke-linecap:butt;stroke-linejoin:miter;stroke-opacity:1" />
    <path
       d="M 132.36778,125.88419 A 7.229126,7.229126 0 1 1 117.90953,125.88419 A 7.229126,7.229126 0 1 1 132.36778,125.88419 z"
       transform="translate(-7.2573102,811.29291)"
       id="path2487"
       style="fill:#fff700;fill-opacity:1;fill-rule:evenodd;stroke:#000000;stroke-width:1pt;stroke-linecap:butt;stroke-linejoin:miter;marker:none;marker-start:none;marker-mid:none;marker-end:none;stroke-miterlimit:4;stroke-dasharray:none;stroke-dashoffset:0;stroke-opacity:1;visibility:visible;display:inline;overflow:visible;enable-background:accumulate" />
    <path
       d="M 132.36778,125.88419 A 7.229126,7.229126 0 1 1 117.90953,125.88419 A 7.229126,7.229126 0 1 1 132.36778,125.88419 z"
       transform="translate(8.0734223,796.08682)"
       id="path2489"
       style="fill:#fff700;fill-opacity:1;fill-rule:evenodd;stroke:#000000;stroke-width:1pt;stroke-linecap:butt;stroke-linejoin:miter;marker:none;marker-start:none;marker-mid:none;marker-end:none;stroke-miterlimit:4;stroke-dasharray:none;stroke-dashoffset:0;stroke-opacity:1;visibility:visible;display:inline;overflow:visible;enable-background:accumulate" />
    <path
       d="M 132.36778,125.88419 A 7.229126,7.229126 0 1 1 117.90953,125.88419 A 7.229126,7.229126 0 1 1 132.36778,125.88419 z"
       transform="translate(8.0734223,811.29291)"
       id="path2491"
       style="fill:#fff700;fill-opacity:1;fill-rule:evenodd;stroke:#000000;stroke-width:1pt;stroke-linecap:butt;stroke-linejoin:miter;marker:none;marker-start:none;marker-mid:none;marker-end:none;stroke-miterlimit:4;stroke-dasharray:none;stroke-dashoffset:0;stroke-opacity:1;visibility:visible;display:inline;overflow:visible;enable-background:accumulate" />
    <path
       d="M 132.36778,125.88419 A 7.229126,7.229126 0 1 1 117.90953,125.88419 A 7.229126,7.229126 0 1 1 132.36778,125.88419 z"
       transform="translate(-7.2573102,796.08682)"
       id="path2493"
       style="fill:#fff700;fill-opacity:1;fill-rule:evenodd;stroke:#000000;stroke-width:1pt;stroke-linecap:butt;stroke-linejoin:miter;marker:none;marker-start:none;marker-mid:none;marker-end:none;stroke-miterlimit:4;stroke-dasharray:none;stroke-dashoffset:0;stroke-opacity:1;visibility:visible;display:inline;overflow:visible;enable-background:accumulate" />
    <path
       d="M 132.36778,125.88419 A 7.229126,7.229126 0 1 1 117.90953,125.88419 A 7.229126,7.229126 0 1 1 132.36778,125.88419 z"
       transform="translate(0.408056,803.68987)"
       id="path2485"
       style="fill:#fff700;fill-opacity:1;fill-rule:evenodd;stroke:#000000;stroke-width:1pt;stroke-linecap:butt;stroke-linejoin:miter;marker:none;marker-start:none;marker-mid:none;marker-end:none;stroke-miterlimit:4;stroke-dasharray:none;stroke-dashoffset:0;stroke-opacity:1;visibility:visible;display:inline;overflow:visible;enable-background:accumulate" />
    <path
       d="M 144.39441,910.83451 L 187.32468,867.90424"
       id="path2517"
       style="fill:none;fill-opacity:0.75;fill-rule:evenodd;stroke:#000000;stroke-width:1px;stroke-linecap:butt;stroke-linejoin:miter;stroke-opacity:1" />
    <path
       d="M 148.38289,913.967 C 160.34834,902.25083 176.05299,890.53466 180.54004,888.54042"
       id="path2519"
       style="fill:none;fill-opacity:0.75;fill-rule:evenodd;stroke:#000000;stroke-width:1px;stroke-linecap:butt;stroke-linejoin:miter;stroke-opacity:1" />
    <path
       d="M 142.04273,908.9814 C 151.37425,900.00731 164.83538,878.81849 167.07891,874.83001"
       id="path2521"
       style="fill:none;fill-opacity:0.75;fill-rule:evenodd;stroke:#000000;stroke-width:1px;stroke-linecap:butt;stroke-linejoin:miter;stroke-opacity:1" />
    <path
       d="M 144.28625,948.42175 L 187.21653,991.35202"
       id="path2529"
       style="fill:none;fill-opacity:0.75;fill-rule:evenodd;stroke:#000000;stroke-width:1px;stroke-linecap:butt;stroke-linejoin:miter;stroke-opacity:1" />
    <path
       d="M 141.15376,952.41023 C 152.86993,964.37568 164.5861,980.08033 166.58034,984.56738"
       id="path2531"
       style="fill:none;fill-opacity:0.75;fill-rule:evenodd;stroke:#000000;stroke-width:1px;stroke-linecap:butt;stroke-linejoin:miter;stroke-opacity:1" />
    <path
       d="M 146.13936,946.07007 C 155.11346,955.40159 176.30227,968.86272 180.29076,971.10625"
       id="path2533"
       style="fill:none;fill-opacity:0.75;fill-rule:evenodd;stroke:#000000;stroke-width:1px;stroke-linecap:butt;stroke-linejoin:miter;stroke-opacity:1" />
    <path
       d="M 106.69902,948.31359 L 63.768746,991.24386"
       id="path2535"
       style="fill:none;fill-opacity:0.75;fill-rule:evenodd;stroke:#000000;stroke-width:1px;stroke-linecap:butt;stroke-linejoin:miter;stroke-opacity:1" />
    <path
       d="M 102.71054,945.1811 C 90.745086,956.89727 75.040436,968.61344 70.553386,970.60768"
       id="path2537"
       style="fill:none;fill-opacity:0.75;fill-rule:evenodd;stroke:#000000;stroke-width:1px;stroke-linecap:butt;stroke-linejoin:miter;stroke-opacity:1" />
    <path
       d="M 109.0507,950.1667 C 99.719176,959.14079 86.258046,980.32961 84.014516,984.31809"
       id="path2539"
       style="fill:none;fill-opacity:0.75;fill-rule:evenodd;stroke:#000000;stroke-width:1px;stroke-linecap:butt;stroke-linejoin:miter;stroke-opacity:1" />
    <path
       d="M 106.80717,910.72635 L 63.876901,867.79608"
       id="path2523"
       style="fill:none;fill-opacity:0.75;fill-rule:evenodd;stroke:#000000;stroke-width:1px;stroke-linecap:butt;stroke-linejoin:miter;stroke-opacity:1" />
    <path
       d="M 109.93966,906.73787 C 98.223493,894.77242 86.507324,879.06777 84.513082,874.58072"
       id="path2525"
       style="fill:none;fill-opacity:0.75;fill-rule:evenodd;stroke:#000000;stroke-width:1px;stroke-linecap:butt;stroke-linejoin:miter;stroke-opacity:1" />
    <path
       d="M 104.95406,913.07803 C 95.979971,903.74651 74.791154,890.28538 70.802671,888.04185"
       id="path2527"
       style="fill:none;fill-opacity:0.75;fill-rule:evenodd;stroke:#000000;stroke-width:1px;stroke-linecap:butt;stroke-linejoin:miter;stroke-opacity:1" />
  </g>
</svg>

<svg xmlns="http://www.w3.org/2000/svg" version="1.0" width="237.708" height="278.437"><path d="m4.637 801.49 4.285 180.006c3.061 128.576 224.075 128.576 227.137 0l4.285-180.006H4.637z" style="fill:#246fcb;fill-opacity:1;fill-rule:evenodd;stroke:#000;stroke-width:2;stroke-linecap:butt;stroke-miterlimit:4;stroke-dashoffset:0;stroke-opacity:1" transform="translate(-3.637 -800.49)"/><path d="M206.117 1016.93c6.134.903 7.064-.618 6.785-6.785-1.106-24.392 15.867-40.91-.748-64.028-17.46-24.292-60.326.45-60.326-16.543 0-16.994 40.925 6.304 60.326-16.543 17.578-20.7-2.45-42.313.748-64.027.903-6.134-.617-7.065-6.785-6.785-24.391 1.106-40.91-15.867-64.027.748-24.293 17.46.45 60.326-16.543 60.326-16.994 0 6.304-40.925-16.543-60.326-20.7-17.578-42.313 2.45-64.028-.748-6.133-.903-7.064.617-6.784 6.785 1.105 24.391-15.867 40.91.747 64.027 17.46 24.292 60.326-.45 60.326 16.543 0 16.994-40.925-6.304-60.326 16.543-17.577 20.7 2.451 42.313-.747 64.028-.904 6.133.617 7.064 6.784 6.784 24.392-1.106 40.91 15.867 64.028-.748 24.292-17.459-.451-60.326 16.543-60.326s-6.304 40.926 16.543 60.326c20.7 17.578 42.313-2.45 64.027.748z" style="fill:#fff;fill-opacity:1;fill-rule:evenodd;stroke:#000;stroke-width:1px;stroke-linecap:butt;stroke-linejoin:miter;stroke-opacity:1" transform="translate(-3.637 -800.49)"/><path d="M132.368 125.884a7.23 7.23 0 1 1-14.458 0 7.23 7.23 0 1 1 14.458 0z" transform="translate(-10.894 10.803)" style="fill:#fff700;fill-opacity:1;fill-rule:evenodd;stroke:#000;stroke-width:1pt;stroke-linecap:butt;stroke-linejoin:miter;marker:none;marker-start:none;marker-mid:none;marker-end:none;stroke-miterlimit:4;stroke-dasharray:none;stroke-dashoffset:0;stroke-opacity:1;visibility:visible;display:inline;overflow:visible;enable-background:accumulate"/><path d="M132.368 125.884a7.23 7.23 0 1 1-14.458 0 7.23 7.23 0 1 1 14.458 0z" transform="translate(4.437 -4.404)" style="fill:#fff700;fill-opacity:1;fill-rule:evenodd;stroke:#000;stroke-width:1pt;stroke-linecap:butt;stroke-linejoin:miter;marker:none;marker-start:none;marker-mid:none;marker-end:none;stroke-miterlimit:4;stroke-dasharray:none;stroke-dashoffset:0;stroke-opacity:1;visibility:visible;display:inline;overflow:visible;enable-background:accumulate"/><path d="M132.368 125.884a7.23 7.23 0 1 1-14.458 0 7.23 7.23 0 1 1 14.458 0z" transform="translate(4.437 10.803)" style="fill:#fff700;fill-opacity:1;fill-rule:evenodd;stroke:#000;stroke-width:1pt;stroke-linecap:butt;stroke-linejoin:miter;marker:none;marker-start:none;marker-mid:none;marker-end:none;stroke-miterlimit:4;stroke-dasharray:none;stroke-dashoffset:0;stroke-opacity:1;visibility:visible;display:inline;overflow:visible;enable-background:accumulate"/><path d="M132.368 125.884a7.23 7.23 0 1 1-14.458 0 7.23 7.23 0 1 1 14.458 0z" transform="translate(-10.894 -4.404)" style="fill:#fff700;fill-opacity:1;fill-rule:evenodd;stroke:#000;stroke-width:1pt;stroke-linecap:butt;stroke-linejoin:miter;marker:none;marker-start:none;marker-mid:none;marker-end:none;stroke-miterlimit:4;stroke-dasharray:none;stroke-dashoffset:0;stroke-opacity:1;visibility:visible;display:inline;overflow:visible;enable-background:accumulate"/><path d="M132.368 125.884a7.23 7.23 0 1 1-14.458 0 7.23 7.23 0 1 1 14.458 0z" transform="translate(-3.229 3.2)" style="fill:#fff700;fill-opacity:1;fill-rule:evenodd;stroke:#000;stroke-width:1pt;stroke-linecap:butt;stroke-linejoin:miter;marker:none;marker-start:none;marker-mid:none;marker-end:none;stroke-miterlimit:4;stroke-dasharray:none;stroke-dashoffset:0;stroke-opacity:1;visibility:visible;display:inline;overflow:visible;enable-background:accumulate"/><path d="m144.394 910.835 42.93-42.93M148.383 913.967c11.965-11.716 27.67-23.432 32.157-25.427M142.043 908.981c9.331-8.974 22.792-30.163 25.036-34.151M144.286 948.422l42.93 42.93M141.154 952.41c11.716 11.966 23.432 27.67 25.426 32.157M146.14 946.07c8.973 9.332 30.162 22.793 34.15 25.036M106.699 948.314l-42.93 42.93M102.71 945.181c-11.965 11.716-27.67 23.432-32.157 25.427M109.05 950.167c-9.33 8.974-22.792 30.163-25.035 34.151M106.807 910.726l-42.93-42.93M109.94 906.738c-11.717-11.966-23.433-27.67-25.427-32.157M104.954 913.078c-8.974-9.331-30.163-22.793-34.151-25.036" style="fill:none;fill-opacity:.75;fill-rule:evenodd;stroke:#000;stroke-width:1px;stroke-linecap:butt;stroke-linejoin:miter;stroke-opacity:1" transform="translate(-3.637 -800.49)"/></svg>
